images/angular.svg

<svg width="157" height="40" viewBox="0 0 157 40" fill="none" xmlns="http://www.w3.org/2000/svg">
<g id="Group">
<path id="Vector" d="M40.4424 28.9053V12.8717H42.5201L52.349 25.7878V12.8717H54.3141V28.9053H52.2365L42.4084 15.8757V28.9053H40.4424Z" fill="#CBCBCB"/>
<path id="Vector_2" d="M70.2637 28.2775C68.9687 28.7716 67.5714 29.0175 66.074 29.0175C60.2565 29.0175 57.3468 26.2335 57.3468 20.6641C57.3468 15.3944 60.1549 12.7589 65.7702 12.7589C67.3811 12.7589 68.8791 12.9839 70.2637 13.4328V15.2264C68.8794 14.7031 67.4556 14.4411 65.9947 14.4411C61.6149 14.4411 59.4256 16.5159 59.4256 20.6638C59.4256 25.1111 61.5807 27.3356 65.8951 27.3356C66.5831 27.3356 67.3469 27.2453 68.1861 27.0656V21.6168H70.2637V28.2775Z" fill="#CBCBCB"/>
<path id="Vector_3" d="M73.5775 22.7163V12.8728H75.6539V22.7163C75.6539 25.7959 77.1894 27.3375 80.2603 27.3375C83.3301 27.3375 84.8653 25.7959 84.8653 22.7163V12.8728H86.9429V22.7163C86.9429 26.9186 84.715 29.0187 80.2603 29.0187C75.8051 29.0185 73.5775 26.9186 73.5775 22.7163Z" fill="#CBCBCB"/>
<path id="Vector_4" d="M92.7271 12.8719V27.2243H101.131V28.9055H90.6503V12.8719H92.7271Z" fill="#CBCBCB"/>
<path id="Vector_5" d="M104.129 28.9059H101.972L109.958 10.7572L117.944 28.9059H115.642L113.563 23.86H108.252L108.824 22.1796H112.868L109.869 14.913L104.129 28.9059Z" fill="#CBCBCB"/>
<path id="Vector_6" d="M120.134 28.9055V12.8719H126.986C130.042 12.8719 131.569 14.1544 131.569 16.7178C131.569 18.8038 130.076 20.3474 127.088 21.348L132.603 28.9058H129.862L124.752 21.6966V20.3406C127.821 19.8535 129.356 18.6764 129.356 16.8084C129.356 15.3289 128.502 14.5876 126.796 14.5876H122.212V28.9058H120.134V28.9055Z" fill="#CBCBCB"/>
<path id="Vector_7" d="M140.387 12.8719V24.2864C140.387 27.366 138.571 28.9055 134.939 28.9055V27.2243C137.186 27.2243 138.309 26.2442 138.309 24.2864V12.8719H140.387Z" fill="#CBCBCB"/>
<path id="Vector_8" d="M144.094 28.3446V26.4383C145.779 27.0357 147.598 27.3363 149.553 27.3363C152.316 27.3363 153.699 26.3268 153.699 24.3073C153.699 22.5907 152.679 21.7292 150.643 21.7292H148.575C145.214 21.7292 143.531 20.273 143.531 17.3572C143.531 14.2929 145.686 12.7593 149.992 12.7593C151.863 12.7593 153.604 12.9852 155.215 13.4331V15.3394C153.604 14.7409 151.863 14.4417 149.992 14.4417C147.071 14.4417 145.611 15.4138 145.611 17.3572C145.611 19.0755 146.599 19.9353 148.575 19.9353H150.643C154.064 19.9353 155.776 21.3939 155.776 24.3073C155.776 27.4478 153.703 29.0179 149.553 29.0179C147.598 29.0176 145.779 28.7926 144.094 28.3446Z" fill="#CBCBCB"/>
<path id="Vector_9" d="M40.9681 28.3816V12.348H43.0457L52.8738 25.2641V12.348H54.8398V28.3816H52.7621L42.9332 15.352V28.3816H40.9681Z" fill="black"/>
<path id="Vector_10" d="M70.7891 27.7535C69.4941 28.2476 68.0977 28.4938 66.5996 28.4938C60.7822 28.4938 57.8724 25.7098 57.8724 20.1404C57.8724 14.8707 60.6805 12.2352 66.2967 12.2352C67.9064 12.2352 69.4048 12.4602 70.7891 12.9091V14.7027C69.4048 14.1795 67.981 13.9174 66.5209 13.9174C62.1411 13.9174 59.9509 15.9922 59.9509 20.1401C59.9509 24.5874 62.1072 26.8123 66.4205 26.8123C67.1088 26.8123 67.8734 26.7226 68.7123 26.542V21.0931H70.7891V27.7535Z" fill="black"/>
<path id="Vector_11" d="M74.1028 22.1921V12.3474H76.1796V22.1921C76.1796 25.2714 77.7148 26.8121 80.7854 26.8121C83.8552 26.8121 85.3909 25.2714 85.3909 22.1921V12.3474H87.4686V22.1921C87.4686 26.3941 85.2407 28.4934 80.7854 28.4934C76.3305 28.4934 74.1028 26.3941 74.1028 22.1921Z" fill="black"/>
<path id="Vector_12" d="M93.253 12.3473V26.6996H101.655V28.3809H91.1763V12.3473H93.253Z" fill="black"/>
<path id="Vector_13" d="M104.654 28.3815H102.498L110.484 10.2316L118.469 28.3815H116.167L114.089 23.3356H108.776L109.35 21.6543H113.392L110.394 14.3877L104.654 28.3815Z" fill="black"/>
<path id="Vector_14" d="M120.66 28.3816V12.348H127.512C130.568 12.348 132.094 13.6296 132.094 16.1938C132.094 18.279 130.602 19.8235 127.614 20.8238L133.128 28.3816H130.386L125.277 21.1724V19.8155C128.347 19.3284 129.882 18.1525 129.882 16.2833C129.882 14.8038 129.028 14.0637 127.32 14.0637H122.738V28.3819H120.66V28.3816Z" fill="black"/>
<path id="Vector_15" d="M140.912 12.3473V23.7618C140.912 26.8423 139.096 28.3809 135.464 28.3809V26.6996C137.711 26.6996 138.835 25.7193 138.835 23.7618V12.3473H140.912Z" fill="#B52E31"/>
<path id="Vector_16" d="M144.619 27.8201V25.9138C146.304 26.5112 148.123 26.8118 150.078 26.8118C152.841 26.8118 154.223 25.8026 154.223 23.7837C154.223 22.0662 153.204 21.2056 151.168 21.2056H149.1C145.739 21.2056 144.056 19.7484 144.056 16.8327C144.056 13.7684 146.21 12.2347 150.517 12.2347C152.389 12.2347 154.129 12.4606 155.74 12.9086V14.8149C154.129 14.2163 152.389 13.9169 150.517 13.9169C147.596 13.9169 146.136 14.889 146.136 16.8324C146.136 18.5507 147.123 19.4107 149.1 19.4107H151.168C154.589 19.4107 156.301 20.8691 156.301 23.7837C156.301 26.9233 154.227 28.493 150.078 28.493C148.123 28.4928 146.304 28.268 144.619 27.8201Z" fill="#B52E31"/>
<path id="Vector_17" d="M121.46 37.5801H121.901V37.2166C122.002 37.3528 122.098 37.4519 122.187 37.5137C122.336 37.6181 122.519 37.6701 122.737 37.6701C123.124 37.6701 123.428 37.5216 123.647 37.2242C123.865 36.9269 123.975 36.5536 123.975 36.1045C123.975 35.6303 123.864 35.2715 123.643 35.0282C123.421 34.785 123.133 34.6632 122.777 34.6632C122.606 34.6632 122.448 34.6991 122.302 34.7706C122.156 34.8423 122.03 34.9462 121.925 35.0823V33.6678H121.46L121.46 37.5801ZM122.707 37.2484C122.362 37.2484 122.126 37.0919 122 36.7786C121.932 36.6124 121.898 36.3957 121.898 36.1283C121.898 35.7586 121.981 35.4933 122.145 35.3321C122.31 35.1712 122.501 35.0906 122.72 35.0906C122.971 35.0906 123.161 35.1888 123.29 35.385C123.418 35.5812 123.483 35.8292 123.483 36.128C123.483 36.4642 123.419 36.7348 123.29 36.9401C123.16 37.1457 122.966 37.2484 122.707 37.2484ZM125.539 37.0528L124.776 34.7376H124.234L125.287 37.6634C125.262 37.7269 125.222 37.824 125.168 37.9546C125.113 38.0852 125.081 38.1575 125.072 38.1716C125.044 38.214 125.008 38.2496 124.967 38.279C124.926 38.3081 124.861 38.3228 124.772 38.3228C124.744 38.3228 124.711 38.3202 124.674 38.3149C124.637 38.3096 124.576 38.2955 124.493 38.2725V38.7079C124.546 38.722 124.591 38.7317 124.627 38.737C124.664 38.7423 124.716 38.7449 124.783 38.7449C125.059 38.7449 125.254 38.6652 125.367 38.5061C125.48 38.347 125.675 37.9049 125.951 37.1804C126.068 36.8725 126.214 36.4742 126.387 35.9856C126.62 35.3362 126.769 34.92 126.837 34.7379H126.308L125.539 37.0528Z" fill="black"/>
<path id="Vector_18" d="M19.1162 0L0.357281 6.59009L3.32155 31.1236L19.1362 39.8003L35.0322 31.0059L37.9956 6.47332L19.1162 0Z" fill="#B2B2B2"/>
<path id="Vector_19" d="M36.1245 7.89113L19.0726 2.08667V37.727L33.363 29.8324L36.1245 7.89113Z" fill="#B52E31"/>
<path id="Vector_20" d="M2.46231 7.9957L5.00228 29.9373L19.072 37.7271V2.08594L2.46231 7.9957Z" fill="#E23237"/>
<path id="Vector_21" d="M23.0248 19.8136L19.1035 11.6393L15.6513 19.8139H23.0248V19.8136ZM24.5199 23.2511H14.1252L11.7998 29.0574L7.47418 29.1371L19.0726 3.38086L31.0752 29.1371H27.0658L24.5199 23.2511Z" fill="#F2F2F2"/>
<path id="Vector_22" d="M19.0726 3.38086L19.1035 11.639L23.021 19.8201H19.0814L19.0726 23.2458L24.5199 23.2511L27.0661 29.1383L31.2052 29.215L19.0726 3.38086Z" fill="#B2B2B2"/>
</g>
</svg>

<svg width="157" height="40" viewBox="0 0 157 40" fill="none" xmlns="http://www.w3.org/2000/svg"><g id="Group"><path id="Vector" d="M40.442 28.905V12.872h2.078l9.829 12.916V12.872h1.965v16.033h-2.078l-9.828-13.03v13.03h-1.966z" fill="#CBCBCB"/><path id="Vector_2" d="M70.264 28.277c-1.295.495-2.693.74-4.19.74-5.817 0-8.727-2.784-8.727-8.353 0-5.27 2.808-7.905 8.423-7.905 1.611 0 3.11.225 4.494.674v1.793a11.982 11.982 0 00-4.27-.785c-4.38 0-6.568 2.075-6.568 6.223 0 4.447 2.155 6.672 6.47 6.672.687 0 1.45-.09 2.29-.27v-5.45h2.078v6.662z" fill="#CBCBCB"/><path id="Vector_3" d="M73.578 22.716v-9.843h2.076v9.843c0 3.08 1.535 4.621 4.606 4.621 3.07 0 4.605-1.541 4.605-4.62v-9.844h2.078v9.843c0 4.203-2.228 6.303-6.683 6.303s-6.683-2.1-6.683-6.303z" fill="#CBCBCB"/><path id="Vector_4" d="M92.727 12.872v14.352h8.404v1.681h-10.48V12.872h2.076z" fill="#CBCBCB"/><path id="Vector_5" d="M104.129 28.906h-2.157l7.986-18.149 7.986 18.149h-2.302l-2.079-5.046h-5.311l.572-1.68h4.044l-2.999-7.267-5.74 13.993z" fill="#CBCBCB"/><path id="Vector_6" d="M120.134 28.905V12.872h6.852c3.056 0 4.583 1.282 4.583 3.846 0 2.086-1.493 3.63-4.481 4.63l5.515 7.558h-2.741l-5.11-7.21v-1.355c3.069-.488 4.604-1.665 4.604-3.533 0-1.48-.854-2.22-2.56-2.22h-4.584v14.318h-2.078z" fill="#CBCBCB"/><path id="Vector_7" d="M140.387 12.872v11.414c0 3.08-1.816 4.62-5.448 4.62v-1.682c2.247 0 3.37-.98 3.37-2.938V12.872h2.078z" fill="#CBCBCB"/><path id="Vector_8" d="M144.094 28.345v-1.907c1.685.598 3.504.898 5.459.898 2.763 0 4.146-1.01 4.146-3.029 0-1.716-1.02-2.578-3.056-2.578h-2.068c-3.361 0-5.044-1.456-5.044-4.372 0-3.064 2.155-4.598 6.461-4.598 1.871 0 3.612.226 5.223.674v1.906c-1.611-.598-3.352-.897-5.223-.897-2.921 0-4.381.972-4.381 2.915 0 1.719.988 2.578 2.964 2.578h2.068c3.421 0 5.133 1.459 5.133 4.372 0 3.14-2.073 4.71-6.223 4.71-1.955 0-3.774-.224-5.459-.672z" fill="#CBCBCB"/><path id="Vector_9" d="M40.968 28.382V12.348h2.078l9.828 12.916V12.348h1.966v16.034h-2.078l-9.829-13.03v13.03h-1.965z" fill="#000"/><path id="Vector_10" d="M70.79 27.753c-1.296.495-2.692.74-4.19.74-5.818 0-8.728-2.783-8.728-8.353 0-5.27 2.809-7.905 8.425-7.905 1.61 0 3.108.225 4.492.674v1.794a11.983 11.983 0 00-4.268-.786c-4.38 0-6.57 2.075-6.57 6.223 0 4.447 2.156 6.672 6.47 6.672.688 0 1.452-.09 2.291-.27v-5.449h2.077v6.66z" fill="#000"/><path id="Vector_11" d="M74.103 22.192v-9.845h2.077v9.845c0 3.08 1.535 4.62 4.605 4.62 3.07 0 4.606-1.54 4.606-4.62v-9.845h2.078v9.845c0 4.202-2.228 6.301-6.684 6.301-4.454 0-6.682-2.099-6.682-6.3z" fill="#000"/><path id="Vector_12" d="M93.253 12.347V26.7h8.402v1.68H91.176V12.348h2.077z" fill="#000"/><path id="Vector_13" d="M104.654 28.381h-2.156l7.986-18.15 7.985 18.15h-2.302l-2.078-5.045h-5.313l.574-1.682h4.042l-2.998-7.266-5.74 13.993z" fill="#000"/><path id="Vector_14" d="M120.66 28.382V12.348h6.852c3.056 0 4.582 1.282 4.582 3.846 0 2.085-1.492 3.63-4.48 4.63l5.514 7.558h-2.742l-5.109-7.21v-1.357c3.07-.487 4.605-1.663 4.605-3.532 0-1.48-.854-2.22-2.562-2.22h-4.582v14.319h-2.078z" fill="#000"/><path id="Vector_15" d="M140.912 12.347v11.415c0 3.08-1.816 4.619-5.448 4.619V26.7c2.247 0 3.371-.98 3.371-2.938V12.347h2.077z" fill="#B52E31"/><path id="Vector_16" d="M144.619 27.82v-1.906c1.685.597 3.504.898 5.459.898 2.763 0 4.145-1.01 4.145-3.028 0-1.718-1.019-2.578-3.055-2.578H149.1c-3.361 0-5.044-1.458-5.044-4.373 0-3.065 2.154-4.598 6.461-4.598 1.872 0 3.612.226 5.223.674v1.906c-1.611-.599-3.351-.898-5.223-.898-2.921 0-4.381.972-4.381 2.915 0 1.719.987 2.579 2.964 2.579h2.068c3.421 0 5.133 1.458 5.133 4.373 0 3.14-2.074 4.709-6.223 4.709-1.955 0-3.774-.225-5.459-.673z" fill="#B52E31"/><path id="Vector_17" d="M121.46 37.58h.441v-.363c.101.136.197.235.286.297a.934.934 0 00.55.156c.387 0 .691-.148.91-.446.218-.297.328-.67.328-1.12 0-.474-.111-.832-.332-1.076-.222-.243-.51-.365-.866-.365-.171 0-.329.036-.475.108a1.067 1.067 0 00-.377.311v-1.414h-.465v3.912zm1.247-.332c-.345 0-.581-.156-.707-.47a1.74 1.74 0 01-.102-.65c0-.37.083-.635.247-.796a.798.798 0 01.575-.241c.251 0 .441.098.57.294.128.196.193.444.193.743 0 .336-.064.607-.193.812a.644.644 0 01-.583.308zm2.832-.195l-.763-2.315h-.542l1.053 2.925c-.025.064-.065.161-.119.292-.055.13-.087.203-.096.217a.413.413 0 01-.105.107c-.041.03-.106.044-.195.044a.704.704 0 01-.098-.008 1.644 1.644 0 01-.181-.042v.435c.053.014.098.024.134.029.037.005.089.008.156.008.276 0 .471-.08.584-.239.113-.159.308-.601.584-1.326.117-.307.263-.706.436-1.194.233-.65.382-1.066.45-1.248h-.529l-.769 2.315z" fill="#000"/><path id="Vector_18" d="M19.116 0L.357 6.59l2.965 24.534L19.136 39.8l15.896-8.794 2.964-24.533L19.116 0z" fill="#B2B2B2"/><path id="Vector_19" d="M36.124 7.891L19.073 2.087v35.64l14.29-7.895 2.761-21.94z" fill="#B52E31"/><path id="Vector_20" d="M2.462 7.996l2.54 21.941 14.07 7.79V2.086l-16.61 5.91z" fill="#E23237"/><path id="Vector_21" d="M23.025 19.814l-3.921-8.175-3.453 8.175h7.374zm1.495 3.437H14.125L11.8 29.057l-4.326.08L19.073 3.381l12.002 25.756h-4.01l-2.545-5.886z" fill="#F2F2F2"/><path id="Vector_22" d="M19.073 3.38l.03 8.259 3.918 8.181h-3.94l-.008 3.426 5.447.005 2.546 5.887 4.14.077L19.072 3.381z" fill="#B2B2B2"/></g></svg>
